GamePadViewer/DS4/Purple-Green/assets/meta.svg

<svg id="Layer_1" data-name="Layer 1" xmlns="http://www.w3.org/2000/svg" width="42.4" height="42.4" viewBox="0 0 42.4 42.4">
    <g>
        <g>
            <circle cx="21.2" cy="21.2" r="20.2" style="fill:rgb(2,149,10);"/>
            <g transform="matrix(1,0,0,1,0.1,0)">
                <path d="M21.1,42.4C9.47,42.4 -0.1,32.83 -0.1,21.2C-0.1,9.57 9.47,0 21.1,0C32.73,-0 42.3,9.57 42.3,21.2C42.295,32.828 32.728,42.395 21.1,42.4ZM21.1,2C10.567,2 1.9,10.667 1.9,21.2C1.9,31.733 10.567,40.4 21.1,40.4C31.633,40.4 40.3,31.733 40.3,21.2C40.3,10.667 31.633,2 21.1,2Z" style="fill:rgb(0,113,6);fill-rule:nonzero;"/>
            </g>
        </g>
        <g>
            <g transform="matrix(1,0,0,1,0.1,0)">
                <path d="M22.2,32.1L22.2,15C22.16,14.64 22.268,14.278 22.5,14C22.654,13.774 22.95,13.69 23.2,13.8C23.8,14 24.1,14.5 24.1,15.5L24.1,22.4C24.75,22.733 25.47,22.904 26.2,22.9C26.772,22.903 27.331,22.728 27.8,22.4C28.8,21.7 29.3,20.5 29.3,18.7C29.421,17.17 28.996,15.646 28.1,14.4C27.005,13.166 25.583,12.265 24,11.8C22.7,11.4 21.5,11 20.4,10.7C19.3,10.4 18.4,10.2 17.5,10L17.5,30.6L22.2,32.1Z" style="fill:rgb(75,0,152);fill-rule:nonzero;"/>
            </g>
            <g transform="matrix(1,0,0,1,0.1,0)">
                <path d="M17.2,26.8L15.5,27.4L14.6,27.8L13,28.1L11.5,27.9C11.2,27.7 11.1,27.5 11.3,27.3C11.5,27.1 11.5,27.2 11.6,27.1C11.7,27 11.9,27 12,26.9L13.1,26.5L17.2,25L17.2,22.3L15.5,22.8L10,24.8L9,25.2C7.5,25.8 6.8,26.4 6.8,27C6.9,27.8 7.8,28.5 9.5,28.9C10.902,29.271 12.35,29.439 13.8,29.4C14.906,29.391 16.01,29.29 17.1,29.1L17.1,26.8L17.2,26.8Z" style="fill:rgb(75,0,152);fill-rule:nonzero;"/>
            </g>
            <g transform="matrix(1,0,0,1,0.1,0)">
                <path d="M33,24.5C32.189,24.217 31.351,24.016 30.5,23.9C29.674,23.767 28.834,23.733 28,23.8C27.062,23.85 26.127,23.951 25.2,24.1C24.311,24.289 23.441,24.556 22.6,24.9L22.6,27.7L26.5,26.3L28.1,25.8L29.2,25.5L30.6,25.5C30.9,25.6 31.2,25.7 31.3,25.9C31.4,26.1 31.1,26.3 30.5,26.5L29.1,27L22.6,29.4L22.6,32.1L26.1,30.8L32.5,28.5L33.2,28.1C34.7,27.6 35.4,26.9 35.4,26.2C35.4,25.5 34.6,25 33,24.5Z" style="fill:rgb(75,0,152);fill-rule:nonzero;"/>
            </g>
        </g>
    </g>
</svg>

<svg id="Layer_1" data-name="Layer 1" xmlns="http://www.w3.org/2000/svg" width="42.4" height="42.4" viewBox="0 0 42.4 42.4">
  <defs>
    <style>
      .cls-1 {
        fill: #fafafa;
      }

      .cls-2 {
        fill: #fff;
      }

      .cls-3 {
        fill: #0d0d0d;
      }
    </style>
  </defs>
  <g>
    <g>
      <circle class="cls-1" cx="21.2" cy="21.2" r="20.2"/>
      <path class="cls-2" d="M21.1,42.4A21.2,21.2,0,1,1,42.3,21.2,21.21,21.21,0,0,1,21.1,42.4ZM21.1,2A19.2,19.2,0,1,0,40.3,21.2,19.2,19.2,0,0,0,21.1,2Z" transform="translate(0.1)"/>
    </g>
    <g>
      <path class="cls-3" d="M22.2,27.8V15a1.33,1.33,0,0,1,.3-1,.57.57,0,0,1,.7-.2c.6.2.9.7.9,1.7v6.9a4.55,4.55,0,0,0,2.1.5,2.77,2.77,0,0,0,1.6-.5c1-.7,1.5-1.9,1.5-3.7a6.49,6.49,0,0,0-1.2-4.3A8.79,8.79,0,0,0,24,11.8c-1.3-.4-2.5-.8-3.6-1.1s-2-.5-2.9-.7V22.2h0v2.7h0v1.7h0v2.5h0v1.5l4.7,1.5V28.5h0Z" transform="translate(0.1)"/>
      <path class="cls-3" d="M17.2,26.8l-1.7.6-.9.4-1.6.3-1.5-.2c-.3-.2-.4-.4-.2-.6s.2-.1.3-.2.3-.1.4-.2l1.1-.4L17.2,25V22.3l-1.7.5-5.5,2-1,.4c-1.5.6-2.2,1.2-2.2,1.8.1.8,1,1.5,2.7,1.9a15.21,15.21,0,0,0,4.3.5,20.2,20.2,0,0,0,3.3-.3V26.8Z" transform="translate(0.1)"/>
      <path class="cls-3" d="M33,24.5a12.88,12.88,0,0,0-2.5-.6,10.48,10.48,0,0,0-2.5-.1,26.6,26.6,0,0,0-2.8.3,15.25,15.25,0,0,0-2.6.8v2.8l3.9-1.4,1.6-.5,1.1-.3h1.4c.3.1.6.2.7.4s-.2.4-.8.6l-1.4.5-6.5,2.4v2.7l3.5-1.3,6.4-2.3.7-.4c1.5-.5,2.2-1.2,2.2-1.9S34.6,25,33,24.5Z" transform="translate(0.1)"/>
    </g>
  </g>
</svg>
